X:1
T: The Earl of Morton
C:William Gow
R:Jig
Q:180
K:C
M:6/8
L:1/16
F2|EFG2G2 c2d2c2|B2A2B2 c2G2E2|F2d2F2 E2c2E2|d2D2D2 D4F2|EFG2G2 c2d2c2|B6 c2G2E2|F6 D2G2F2|E2C2C2 C4F2|
EFG2G2 c2d2c2|B2A2B2 c2G2E2|F2d2F2 E2c2E2|d2D2D2 D4F2|EFG2G2 c2d2c2|B6 c2G2E2|F6 D2G2F2|E2C2C2 C4f2|
e2c2c2 g2c2c2|a2c2c2 g2c2c2|e2c2c2 g2c2c2|f2d2d2 d4f2|e2c2c2 g2c2c2|a2c2c2 g2c2c2|f2e2f2 d2g2f2|e2c2c2 c4f2|
e2c2c2 g2c2c2|a2c2c2 g2c2c2|e2c2c2 g2c2c2|f2d2d2 d4GF|EFG2G2 c2d2c2|B6 c2G2E2|F2E2F2 D2G2F2|E2C2C2 C4||
